src/components/00-materials/images-raw/Contract Termination.svg

<svg width="96" height="96" viewBox="0 0 96 96" fill="none" xmlns="http://www.w3.org/2000/svg">
<path d="M68.75 25.2901V77.2901C68.7447 78.1813 68.3877 79.0344 67.7565 79.6637C67.1254 80.2929 66.2712 80.6475 65.38 80.6501H30.62C29.7288 80.6475 28.8746 80.2929 28.2435 79.6637C27.6123 79.0344 27.2553 78.1813 27.25 77.2901V18.7001C27.2553 17.8089 27.6123 16.9558 28.2435 16.3265C28.8746 15.6972 29.7288 15.3427 30.62 15.3401H58.62" stroke="#00008F" stroke-width="2" stroke-linecap="round" stroke-linejoin="round"/>
<path d="M61.72 75.0001L55.58 68.8601M68.75 25.2901H60.44C59.9653 25.2901 59.51 25.1015 59.1743 24.7658C58.8386 24.4301 58.65 23.9748 58.65 23.5001V15.3401L68.75 25.2901ZM32.07 23.9401H46.18H32.07ZM50.51 30.0101H64.62H50.51ZM31.38 43.7501H64.62H31.38ZM31.38 48.0001H64.62H31.38ZM31.38 52.7201H64.62H31.38ZM61.72 68.8601L55.58 75.0001L61.72 68.8601Z" stroke="#00008F" stroke-width="2" stroke-linecap="round" stroke-linejoin="round"/>
</svg>

<svg width="96" height="96" viewBox="0 0 96 96" fill="none" xmlns="http://www.w3.org/2000/svg"><path d="M68.75 25.29v52a3.38 3.38 0 01-3.37 3.36H30.62a3.38 3.38 0 01-3.37-3.36V18.7a3.38 3.38 0 013.37-3.36h28" stroke="#00008F" stroke-width="2" stroke-linecap="round" stroke-linejoin="round"/><path d="M61.72 75l-6.14-6.14m13.17-43.57h-8.31a1.79 1.79 0 01-1.79-1.79v-8.16l10.1 9.95zm-36.68-1.35h14.11-14.11zm18.44 6.07h14.11-14.11zM31.38 43.75h33.24-33.24zm0 4.25h33.24-33.24zm0 4.72h33.24-33.24zm30.34 16.14L55.58 75l6.14-6.14z" stroke="#00008F" stroke-width="2" stroke-linecap="round" stroke-linejoin="round"/></svg>
